priv/static/svgs/icons_new/travel-airplane-down.svg

<svg width="32" height="32" viewBox="0 0 32 32" fill="none" xmlns="http://www.w3.org/2000/svg">
<path d="M27 25.4999H5M12.1815 14.4683L10.8408 15.6445L7.30723 17.8343L9.11132 18.5149L15.6904 16.1029L22.9096 17.9697C24.0325 18.2517 25.2733 18.4746 25.5283 17.78C25.7834 17.0854 24.3348 15.4765 23.1029 15.0126L9.89657 10.9694L8.34417 6.08628L7.24141 5.6709L6.74845 10.4416C6.1974 10.4535 5.76415 10.5544 5.66788 10.8165C5.39253 11.5666 7.70384 13.02 9.44445 13.6749L10.2714 13.9864M15.5983 11.0678L13.8372 8.20535L12.033 7.52665L12.8051 10.0584" stroke="black" stroke-linecap="round" stroke-linejoin="round"/>
</svg>

<svg width="32" height="32" viewBox="0 0 32 32" fill="none" xmlns="http://www.w3.org/2000/svg">
  <symbol id="item" viewBox="0 0 32 32" stroke-width="1" fill="none">
    <path d="M27 25.5H5m7.181-11.032-1.34 1.177-3.534 2.19 1.804.68 6.58-2.412 7.219 1.867c1.122.282 2.363.505 2.618-.19.255-.695-1.193-2.304-2.425-2.767L9.897 10.969 8.344 6.086l-1.103-.415-.493 4.77c-.55.012-.984.113-1.08.375-.275.75 2.036 2.204 3.776 2.859l.827.311m5.327-2.918-1.76-2.863-1.805-.678.772 2.531" stroke="currentColor" stroke-linecap="round" stroke-linejoin="round"/>
  </symbol>
</svg>
